packages/calcite-ui-icons/icons/document-learning-16.svg

<?xml version="1.0" encoding="UTF-8"?><svg id="icons" xmlns="http://www.w3.org/2000/svg" viewBox="0 0 16 16"><defs><style>.cls-1{fill:none;}</style></defs><rect class="cls-1" width="16" height="16"/><path d="M10,3h-4v-1h4v1ZM10,5v-1h-3v1h3ZM8,8.35547v2.55054l1-1.00024v-1.55029c0-1.17383-.78613-2.22754-1.94727-2.57031l-6.05273-1.33527V1h9.375c.34473,0,.625.28027.625.625v6.28027l.04004-.04004c.25916-.25916.5979-.40601.95996-.43182V1.625c0-.89648-.72852-1.625-1.625-1.625H.875c-.48242,0-.875.39258-.875.875v13.25c0,.48242.39258.875.875.875h4.72479c.01953-.24799.0813-.46222.14978-.62402l.16821-.37598H1V5.47375l5.80273,1.27917c.70508.20898,1.19727.86816,1.19727,1.60254ZM14.41309,10.44727l-1.90527-1.90527,1.23438-1.23438c.37012-.36914.97168-.37012,1.3418-.00098l.56348.56445c.17871.17773.27832.41699.27832.6709s-.09961.49316-.2793.67188l-1.2334,1.2334ZM13.90723,8.52734l.50586.50586.52734-.52734-.5625-.49121-.4707.5127ZM15.42578,13.08966c-.00195,0-2.75684.00507-3.25977.83027-.15527.25488-.17383.55078-.04492.86719-.35938.14569-1.37433.13129-2.22791.09546l.06091-.02612,3.75488-3.7041-.70703-.70703-3.53027,3.5293-.85938.36914.36816-.86035,3.53027-3.53027-.70703-.70703-3.59863,3.59863-.89815,2.13086c-.05652.1391-.03607.28137.01556.41101.03339.17389.14893.31482.31201.37415l.18359.03455c.38824.00061.80653.02533,1.30397.05139.65234.03418,1.22949.05957,1.72949.05957,1.13672,0,1.87109-.13281,2.17578-.59766.09961-.15234.23438-.47363-.00781-.86719.16016-.22656,1.33301-.45508,2.41309-.46875.27539-.00391.49609-.19447.49316-.47084-.00391-.27344-.22656-.41216-.5-.41216ZM3,3v-1h-1v1h1ZM3,7h-1v1h1v-1ZM2,13h1v-1h-1v1Z"/></svg>

<svg xmlns="http://www.w3.org/2000/svg" viewBox="0 0 16 16"><path fill="none" d="M0 0h16v16H0z"/><path d="M10 3H6V2h4v1zm0 2V4H7v1h3zM8 8.355v2.551l1-1v-1.55a2.696 2.696 0 0 0-1.947-2.57L1 4.45V1h9.375c.345 0 .625.28.625.625v6.28l.04-.04a1.5 1.5 0 0 1 .96-.432V1.625C12 .729 11.271 0 10.375 0h-9.5A.876.876 0 0 0 0 .875v13.25c0 .482.393.875.875.875H5.6c.02-.248.081-.462.15-.624L5.918 14H1V5.474l5.803 1.279A1.682 1.682 0 0 1 8 8.355zm6.413 2.092l-1.905-1.905 1.234-1.234a.951.951 0 0 1 1.342-.001l.563.564a.943.943 0 0 1-.001 1.343l-1.233 1.233zm-.506-1.92l.506.506.527-.527-.562-.491-.47.512zm1.519 4.563c-.002 0-2.757.005-3.26.83-.155.255-.174.55-.045.867-.36.146-1.374.131-2.228.096l.061-.027 3.755-3.704-.707-.707-3.53 3.53-.86.369.368-.86 3.53-3.53-.706-.708-3.599 3.599-.898 2.13a.54.54 0 0 0 .015.412.49.49 0 0 0 .312.374l.184.034c.388 0 .807.026 1.304.052.652.034 1.23.06 1.73.06 1.136 0 1.87-.134 2.175-.598.1-.153.235-.474-.007-.868.16-.226 1.333-.455 2.413-.468.275-.004.496-.195.493-.471-.004-.274-.227-.412-.5-.412zM3 3V2H2v1h1zm0 4H2v1h1V7zm-1 6h1v-1H2v1z"/></svg>
